X:847
T:The Rakes of Kildare
B:O'Neill's 847
Z:Transcribed by Dan G. Petersen, dangp@post6.tele.dk
M:6/8
L:1/8
K:G
D|D2G AGFG|ABc d2e|fef ded|cAG F3|
DGG AGFG|ABc d2e|fed cAF|G3 G2:|
d|agfg def|gfg a2g|fef ded|cAG F2d|
agfg def|gfg a2g|fed cAF|G3 G2:|
